assets/svg/1f9d1-1f3fe-200d-1fa70.svg

<svg viewBox="0 0 36 36" fill="none" xmlns="http://www.w3.org/2000/svg">
<path d="M7.43231 30.6801C7.43231 30.6801 7.59672 30.4133 7.6481 30.3172C7.95637 29.7516 7.50424 29.2607 7.24735 29.09C6.94936 28.8765 6.40475 28.5564 5.84986 29.2394C5.70601 29.3994 5.35663 29.9117 5.26415 30.1145C4.80175 30.8935 4.05163 32.3662 3.6817 33.1986C3.45564 33.7322 2.96241 35.3863 2.96241 35.3863C2.93158 35.5144 2.96241 35.6318 3.04461 35.7385L3.19875 35.8879C3.31178 35.9946 3.49674 35.984 3.62005 35.9092L7.5659 32.2808C7.83306 32.0354 7.86389 31.6832 7.6481 31.3844C7.54534 31.235 7.31928 30.8828 7.42204 30.6907L7.43231 30.6801Z" fill="#AF7E57"/>
<path d="M15.0673 19.0263L13.6287 17.4683C13.6287 17.4683 7.70993 26.2939 5.37736 29.9223C5.06909 30.4025 4.90468 31.1709 5.36708 31.5444C5.94252 32.0139 6.38437 31.7045 6.89815 31.1709C9.42596 28.663 16.2079 21.1287 16.547 20.7445L15.057 18.9943L15.0776 19.0263H15.0673Z" fill="#AF7E57"/>
<path d="M12.4365 19.2826L15.4267 22.0146C16.1255 21.2569 16.8037 20.6486 16.8037 20.6486L13.6388 17.4578L12.4365 19.272V19.2826Z" fill="#FA743E"/>
<path d="M10.7727 10.3609L7.03239 6.56176L3.26123 2.52781L3.98053 1.59937L8.34767 4.993L11.3276 7.31946L10.7727 10.3609Z" fill="#AF7E57"/>
<path d="M4.565 2.35525C4.71489 1.90393 3.87524 1.19377 2.68959 0.76906C1.50394 0.344348 0.421276 0.365912 0.271391 0.817225C0.121506 1.26854 0.961158 1.9787 2.14681 2.40341C3.33245 2.82812 4.41512 2.80656 4.565 2.35525Z" fill="#AF7E57"/>
<path d="M27.7991 4.8009C27.1826 4.993 24.5726 5.61196 22.1681 6.29496C19.5992 7.03131 17.5646 7.70364 17.5646 7.70364L16.3521 10.8411L22.5483 8.25857L28.1279 5.93212C27.9841 5.65465 27.943 5.11039 27.7991 4.81158V4.8009Z" fill="#AF7E57"/>
<path d="M29.1381 6.18294C30.3997 5.97778 31.3668 5.44327 31.2983 4.98908C31.2298 4.53489 30.1517 4.33302 28.8901 4.53818C27.6286 4.74335 26.6615 5.27786 26.73 5.73205C26.7984 6.18623 27.8766 6.38811 29.1381 6.18294Z" fill="#AF7E57"/>
<path d="M16.8037 20.6378L13.1456 19.4105C13.1456 19.4105 11.1932 17.4576 10.5767 14.6829C9.84711 11.3746 11.3268 7.31934 11.3268 7.31934L13.9265 7.94897L17.5641 7.71419C17.5641 7.71419 16.4338 10.8517 17.112 13.2102C17.7902 15.4192 19.0952 15.6327 19.0952 15.6327L18.0573 19.656L16.7934 20.6484L16.8037 20.6378Z" fill="#FA743E"/>
<path d="M35.9272 9.76319C35.8758 9.60311 35.7422 9.51774 35.5881 9.54975L30.3681 10.4142C30.029 10.4675 29.8132 10.7877 29.8337 11.1612C29.8337 11.2252 29.8337 11.3533 29.8337 11.4066C29.8235 11.5987 29.8337 11.6948 29.618 11.7695C29.3611 11.9616 28.8062 12.1964 29.1453 13.0394C29.4022 13.605 29.8235 13.6904 30.6558 13.2529C31.4367 12.8473 33.2144 12.2497 34.0776 11.5987C34.6016 11.2146 35.8758 10.3288 35.8758 10.3288C35.9786 10.2434 36.0094 10.1154 35.9786 10.0086L35.9272 9.76319Z" fill="#AF7E57"/>
<path d="M35.927 9.76319C35.8756 9.60311 35.742 9.51774 35.5879 9.54975L30.3679 10.4142C30.0288 10.4675 29.7924 10.7984 29.8233 11.1719C29.8233 11.1719 29.8335 11.428 29.813 11.5881C29.813 11.5881 32.8546 10.841 33.3889 10.8944C33.7897 10.9264 34.0157 11.6628 34.0157 11.6628C34.92 11.0758 35.8859 10.3288 35.8859 10.3288C35.9886 10.2434 36.0195 10.1154 35.9886 10.0086L35.9373 9.76319H35.927Z" fill="#FA743E"/>
<path d="M31.5594 11.7695C31.2614 11.1078 30.871 11.396 30.0797 11.6308C27.4594 12.4632 21.2427 14.2774 18.4683 15.1951L19.763 18.7915C22.7018 17.2975 28.6206 14.4054 31.0148 13.0821C32.0218 12.5165 31.9088 12.4738 31.5903 11.7588H31.5697L31.5594 11.7695Z" fill="#AF7E57"/>
<path d="M16.958 15.6861C16.958 15.6861 16.29 16.3798 16.773 17.8631C17.2559 19.3465 18.0677 19.6347 18.0677 19.6347C18.0677 19.6347 18.7356 19.3252 19.7632 18.8023L19.0439 14.9924L16.9888 15.6754H16.9682L16.958 15.6861Z" fill="#FA743E"/>
<path d="M12.8376 2.57056C12.7349 3.12549 14.8414 5.93218 15.1394 6.78593C16.4135 6.56182 17.2767 5.34523 17.585 4.99306C18.2426 4.20335 18.592 2.9334 17.6055 2.06899C17.5233 1.73816 17.4411 0.767024 15.2627 0.692321C14.2248 0.638962 13.0842 1.30061 12.8376 2.60258V2.57056Z" fill="#60352A"/>
<path d="M15.6836 2.06877C14.8308 2.20751 14.1629 1.82332 13.5258 2.12213C13.4949 2.06877 13.6593 1.82332 13.8443 1.70593C13.4744 1.70593 13.0428 2.12213 12.8578 2.48497C12.7551 2.65572 12.6934 2.86916 12.6729 3.06125C12.6215 3.4988 12.6215 3.77626 12.5393 3.8403C12.0563 4.20314 12.0563 4.64068 12.005 5.21696C11.9433 5.91063 11.82 6.15608 12.2927 6.4869C12.529 6.65765 14.8205 6.95646 15.139 6.47623C15.4576 5.996 15.5398 5.95331 15.7145 5.94264C15.8994 6.18809 16.7934 6.02802 17.1325 5.71853C17.4305 5.45174 17.636 4.96084 17.3175 4.70471C16.8653 4.34187 16.5057 4.54463 15.7556 5.11024C15.6528 5.19562 15.4884 4.77941 15.9919 4.13911C15.9919 4.13911 15.1185 3.09327 15.6734 2.06877H15.6836Z" fill="#AF7E57"/>
<path d="M12.8375 6.3056C13.0739 6.47635 13.4849 6.44433 13.3308 7.29808C13.2897 7.5542 13.1458 7.84234 12.9814 7.92771C12.7656 8.03443 12.7656 8.00242 12.7142 8.21585C12.6628 8.49332 13.4849 9.24035 13.7829 9.29371C14.0809 9.34707 15.4989 8.94154 15.6017 8.61071C15.6839 8.36526 15.1187 8.25854 15.3653 7.27673C15.5708 6.42299 15.8277 6.16686 16.3415 5.6973C15.9202 5.51588 12.3546 5.9641 12.8375 6.29493V6.3056Z" fill="#AF7E57"/>
<path d="M3.22993 35.92C3.35324 36.0267 3.50738 36.0267 3.63068 35.92L7.58681 32.2809C7.8437 32.0461 7.87452 31.6406 7.65874 31.3311C7.65874 31.3311 7.51488 31.1177 7.45322 30.9683C7.45322 30.9683 5.27479 33.2947 4.80211 33.5508C4.45274 33.7429 3.68206 33.2093 3.68206 33.2093C3.26076 34.3406 3.14773 34.8208 2.97304 35.3971C2.93194 35.5251 2.9936 35.6639 3.0758 35.7386L3.25049 35.92H3.22993Z" fill="#FA743E"/>
</svg>

<svg xmlns="http://www.w3.org/2000/svg" viewBox="0 0 36 36"><path fill="#af7e57" d="M7.432 30.68s.165-.267.216-.363c.308-.565-.144-1.056-.4-1.227-.299-.213-.843-.534-1.398.15-.144.16-.493.672-.586.875a38 38 0 0 0-1.582 3.084c-.226.533-.72 2.187-.72 2.187a.4.4 0 0 0 .083.352l.154.15c.113.107.298.096.421.021l3.946-3.628c.267-.246.298-.598.082-.897-.103-.149-.329-.501-.226-.693z"/><path fill="#af7e57" d="m15.067 19.026-1.438-1.558s-5.92 8.826-8.252 12.454c-.308.48-.472 1.249-.01 1.622.576.47 1.017.16 1.531-.373 2.528-2.508 9.31-10.042 9.649-10.426l-1.49-1.75.02.031z"/><path fill="#fa743e" d="m12.437 19.283 2.99 2.732a23 23 0 0 1 1.377-1.366l-3.165-3.191-1.202 1.814z"/><path fill="#af7e57" d="m10.773 10.36-3.74-3.798L3.26 2.528l.72-.929 4.367 3.394 2.98 2.326z"/><path fill="#af7e57" d="M4.565 2.355c.15-.451-.69-1.161-1.875-1.586S.42.366.27.817c-.15.452.69 1.162 1.876 1.586s2.268.404 2.418-.048M27.8 4.8c-.617.193-3.227.812-5.632 1.495-2.569.736-4.603 1.409-4.603 1.409l-1.213 3.137 6.196-2.582 5.58-2.327c-.144-.277-.185-.822-.329-1.12z"/><path fill="#af7e57" d="M29.138 6.183c1.262-.205 2.229-.74 2.16-1.194s-1.146-.656-2.408-.45c-1.261.204-2.229.739-2.16 1.193s1.147.656 2.408.45"/><path fill="#fa743e" d="m16.804 20.638-3.658-1.228s-1.953-1.952-2.57-4.727c-.729-3.308.75-7.364.75-7.364l2.6.63 3.638-.235s-1.13 3.138-.452 5.496c.678 2.21 1.983 2.423 1.983 2.423l-1.038 4.023-1.264.992z"/><path fill="#af7e57" d="M35.927 9.763c-.051-.16-.185-.245-.339-.213l-5.22.864c-.339.053-.555.374-.534.747v.246c-.01.192 0 .288-.216.363-.257.192-.812.426-.473 1.27.257.565.678.65 1.51.213.782-.406 2.56-1.003 3.423-1.654.524-.384 1.798-1.27 1.798-1.27.103-.086.133-.214.103-.32z"/><path fill="#fa743e" d="M35.927 9.763c-.051-.16-.185-.245-.34-.213l-5.22.864c-.338.053-.575.384-.544.758 0 0 .01.256-.01.416 0 0 3.042-.747 3.576-.694.4.032.627.769.627.769.904-.587 1.87-1.334 1.87-1.334.103-.086.133-.214.103-.32l-.052-.246z"/><path fill="#af7e57" d="M31.56 11.77c-.299-.662-.689-.374-1.48-.14-2.62.833-8.837 2.647-11.612 3.565l1.295 3.596c2.939-1.494 8.858-4.386 11.252-5.709 1.007-.566.894-.608.575-1.323h-.02z"/><path fill="#fa743e" d="M16.958 15.686s-.668.694-.185 2.177 1.295 1.772 1.295 1.772.668-.31 1.695-.833l-.72-3.81-2.054.683h-.02z"/><path fill="#60352a" d="M12.838 2.57c-.103.555 2.003 3.362 2.301 4.216 1.274-.224 2.138-1.44 2.446-1.793.658-.79 1.007-2.06.02-2.924-.082-.33-.164-1.302-2.342-1.377-1.038-.053-2.179.609-2.425 1.91z"/><path fill="#af7e57" d="M15.684 2.069c-.853.139-1.521-.246-2.158.053-.031-.053.133-.299.318-.416-.37 0-.801.416-.986.779-.103.17-.165.384-.185.576-.052.438-.052.715-.134.78-.483.362-.483.8-.534 1.376-.062.694-.185.94.288 1.27.236.17 2.528.47 2.846-.01.319-.481.4-.524.575-.534.185.245 1.08.085 1.418-.224.298-.267.504-.758.185-1.014-.452-.363-.811-.16-1.561.405-.103.086-.268-.33.236-.97 0 0-.874-1.047-.319-2.071z"/><path fill="#af7e57" d="M12.838 6.306c.236.17.647.138.493.992-.041.256-.185.544-.35.63-.215.106-.215.074-.267.288-.051.277.77 1.024 1.069 1.078.298.053 1.716-.352 1.819-.683.082-.246-.483-.352-.237-1.334.206-.854.463-1.11.976-1.58-.42-.181-3.986.267-3.504.598z"/><path fill="#fa743e" d="M3.23 35.92a.29.29 0 0 0 .4 0l3.957-3.64c.257-.234.288-.64.072-.949 0 0-.144-.213-.206-.363 0 0-2.178 2.327-2.65 2.583-.35.192-1.12-.342-1.12-.342-.422 1.132-.535 1.612-.71 2.188-.041.128.02.267.103.342l.174.181z"/></svg>
